src/raw/youtube/icon_24.svg

<svg width="24" height="24" viewBox="0 0 24 24" fill="none" xmlns="http://www.w3.org/2000/svg">
<path fill-rule="evenodd" clip-rule="evenodd" d="M11.7489 4C10.755 4.00335 6.95329 4.03145 4.29761 4.23019C3.86729 4.28305 2.92964 4.28706 2.09295 5.19376C1.43291 5.88365 1.21872 7.45214 1.21872 7.45214C1.21872 7.45214 1.01747 9.13906 1 10.8982V13.0957C1.01747 14.8549 1.21872 16.5418 1.21872 16.5418C1.21872 16.5418 1.43291 18.1097 2.09295 18.8002C2.92964 19.7069 4.02971 19.6781 4.51956 19.7725C6.12954 19.9324 11.0533 19.9913 11.8803 20H12.2893C13.3485 19.994 17.0829 19.9599 19.7011 19.7638C20.1314 19.7109 21.0691 19.7069 21.9058 18.8002C22.5658 18.1097 22.78 16.5418 22.78 16.5418C22.78 16.5418 23 14.701 23 12.8602V11.1338C23 9.29229 22.78 7.45214 22.78 7.45214C22.78 7.45214 22.5658 5.88365 21.9058 5.19376C21.0691 4.28706 20.1314 4.28305 19.7011 4.23019C17.0454 4.03145 13.2437 4.00335 12.2491 4H11.7489ZM9.72675 8.56008L15.6723 11.7681L9.72804 14.9548L9.72675 8.56008Z" fill="#3F3F46"/>
</svg>

<svg xmlns="http://www.w3.org/2000/svg" width="24" height="24" fill="none" viewBox="0 0 24 24">
  <path fill="#3F3F46" fill-rule="evenodd"
    d="M11.749 4c-.994.003-4.796.031-7.451.23-.43.053-1.368.057-2.205.964-.66.69-.874 2.258-.874 2.258S1.017 9.14 1 10.898v2.198c.017 1.759.219 3.446.219 3.446s.214 1.568.874 2.258c.837.907 1.937.878 2.427.973 1.61.16 6.533.218 7.36.227h.41c1.059-.006 4.793-.04 7.411-.236.43-.053 1.368-.057 2.205-.964.66-.69.874-2.258.874-2.258S23 14.7 23 12.86v-1.726c0-1.842-.22-3.682-.22-3.682s-.214-1.568-.874-2.258c-.837-.907-1.775-.91-2.205-.964-2.656-.199-6.457-.227-7.452-.23h-.5ZM9.727 8.56l5.945 3.208-5.944 3.187-.001-6.395Z"
    clip-rule="evenodd" />
</svg>
